; generated by Slic3r 1.2.6 on 2015-04-20 at 14:41:10

; external perimeters extrusion width = 0.60mm
; perimeters extrusion width = 0.79mm
; infill extrusion width = 0.79mm
; solid infill extrusion width = 0.79mm
; top infill extrusion width = 0.36mm

M107
M190 S80 ; set bed temperature
M104 S240 ; set temperature
G28 ; home all axes
G1 Z5 F5000 ; lift nozzle

M109 S240 ; wait for temperature to be reached
G21 ; set units to millimeters
G90 ; use absolute coordinates
M82 ; use absolute distances for extrusion
G92 E0
G1 E-2.00000 F1800.00000
G92 E0
G1 Z0.400 F7800.000
G1 X60.508 Y54.637 F7800.000
G1 E2.00000 F1800.00000
G1 X62.696 Y52.607 E2.12778 F1200.000
G1 X67.892 Y49.607 E2.38462
G1 X70.744 Y48.727 E2.51238
G1 X72.475 Y48.597 E2.58668
G1 X74.772 Y48.823 E2.68547
G1 X76.330 Y49.477 E2.75779
G1 X145.873 Y89.628 E6.19520
G1 X147.643 Y91.109 E6.29398
G1 X148.562 Y92.526 E6.36631
G1 X149.316 Y94.091 E6.44063
G1 X149.979 Y97.000 E6.56837
G1 X149.979 Y103.000 E6.82521
G1 X149.315 Y105.910 E6.95297
G1 X148.562 Y107.474 E7.02726
G1 X147.218 Y109.350 E7.12605
G1 X145.873 Y110.372 E7.19838
G1 X76.330 Y150.523 E10.63578
G1 X74.163 Y151.316 E10.73457
G1 X72.475 Y151.403 E10.80689
G1 X70.745 Y151.273 E10.88119
G1 X67.892 Y150.393 E11.00895
G1 X62.696 Y147.393 E11.26579
G1 X60.508 Y145.363 E11.39357
G1 X59.530 Y143.929 E11.46787
G1 X58.578 Y141.827 E11.56665
G1 X58.365 Y140.151 E11.63897
G1 X58.365 Y59.849 E15.07637
G1 X58.762 Y57.576 E15.17515
G1 X59.530 Y56.071 E15.24747
G1 X60.457 Y54.712 E15.31791
G1 E13.31791 F1800.00000
G92 E0
G1 X73.063 Y142.295 F7800.000
G1 E2.00000 F1800.00000
G1 X73.191 Y143.144 E2.03675 F1200.000
G1 X72.607 Y143.774 E2.07350
G1 X71.751 Y143.710 E2.11026
G1 X71.267 Y143.000 E2.14701
G1 X71.520 Y142.180 E2.18376
G1 X72.320 Y141.866 E2.22051
G1 X72.985 Y142.250 E2.25342
G1 X73.623 Y141.914 F7800.000
G1 X73.839 Y143.344 E2.31534 F1200.000
G1 X72.855 Y144.405 E2.37726
G1 X71.412 Y144.296 E2.43918
G1 X70.597 Y143.101 E2.50111
G1 X71.024 Y141.719 E2.56303
G1 X72.370 Y141.190 E2.62495
G1 X73.545 Y141.869 E2.68303
G1 X73.285 Y142.409 F7800.000
G1 X72.698 Y142.837 F7800.000
G1 X72.319 Y142.458 E2.70593 F1200.000
G1 E0.70593 F1800.00000
G92 E0
G1 X67.995 Y140.144 F7800.000
G1 E2.00000 F1800.00000
G1 X67.411 Y140.774 E2.03675 F1200.000
G1 X66.555 Y140.710 E2.07351
G1 X66.071 Y140.000 E2.11026
G1 X66.323 Y139.183 E2.14687
G1 X67.132 Y138.871 E2.18397
G1 X67.867 Y139.295 E2.22031
G1 X67.982 Y140.055 E2.25321
G1 X68.643 Y140.344 F7800.000
G1 X67.659 Y141.405 E2.31513 F1200.000
G1 X66.216 Y141.296 E2.37705
G1 X65.401 Y140.101 E2.43898
G1 X65.827 Y138.720 E2.50085
G1 X67.185 Y138.196 E2.56313
G1 X68.427 Y138.914 E2.62454
G1 X68.629 Y140.255 E2.68261
G1 X68.044 Y140.389 F7800.000
G1 X67.502 Y139.837 F7800.000
G1 X67.123 Y139.458 E2.70551 F1200.000
G1 E0.70551 F1800.00000
G92 E0
G1 X73.028 Y135.498 F7800.000
G1 E2.00000 F1800.00000
G1 X72.544 Y134.788 E2.03675 F1200.000
G1 X72.797 Y133.968 E2.07351
G1 X73.597 Y133.654 E2.11026
G1 X74.340 Y134.084 E2.14701
G1 X74.468 Y134.933 E2.18376
G1 X73.884 Y135.562 E2.22052
G1 X73.118 Y135.505 E2.25342
G1 X72.689 Y136.085 F7800.000
G1 X71.874 Y134.889 E2.31534 F1200.000
G1 X72.301 Y133.507 E2.37726
G1 X73.647 Y132.979 E2.43919
G1 X74.900 Y133.702 E2.50111
G1 X75.116 Y135.132 E2.56303
G1 X74.132 Y136.193 E2.62496
G1 X72.779 Y136.091 E2.68303
G1 X72.779 Y135.491 F7800.000
G1 X73.975 Y134.625 F7800.000
G1 X73.596 Y134.247 E2.70593 F1200.000
G1 E0.70593 F1800.00000
G92 E0
G1 X77.508 Y134.190 F7800.000
G1 E2.00000 F1800.00000
G1 X77.761 Y133.370 E2.03675 F1200.000
G1 X78.561 Y133.056 E2.07351
G1 X79.304 Y133.486 E2.11026
G1 X79.432 Y134.335 E2.14701
G1 X78.848 Y134.964 E2.18376
G1 X77.992 Y134.900 E2.22052
G1 X77.559 Y134.265 E2.25342
G1 X76.838 Y134.291 F7800.000
G1 X77.265 Y132.909 E2.31534 F1200.000
G1 X78.611 Y132.381 E2.37727
G1 X79.864 Y133.104 E2.43919
G1 X80.080 Y134.534 E2.50111
G1 X79.096 Y135.595 E2.56303
G1 X77.653 Y135.487 E2.62496
G1 X76.889 Y134.366 E2.68303
G1 X77.358 Y133.991 F7800.000
G1 X78.560 Y133.649 F7800.000
G1 X78.939 Y134.027 E2.70593 F1200.000
G1 E0.70593 F1800.00000
G92 E0
G1 X72.504 Y130.335 F7800.000
G1 E2.00000 F1800.00000
G1 X71.920 Y130.964 E2.03675 F1200.000
G1 X71.064 Y130.900 E2.07350
G1 X70.580 Y130.190 E2.11026
G1 X70.833 Y129.370 E2.14701
G1 X71.632 Y129.056 E2.18376
G1 X72.376 Y129.486 E2.22052
G1 X72.491 Y130.246 E2.25342
G1 X73.151 Y130.534 F7800.000
G1 X72.168 Y131.595 E2.31534 F1200.000
G1 X70.725 Y131.487 E2.37726
G1 X69.910 Y130.291 E2.43919
G1 X70.336 Y128.909 E2.50111
G1 X71.683 Y128.381 E2.56303
G1 X72.936 Y129.104 E2.62496
G1 X73.138 Y130.445 E2.68303
G1 X72.553 Y130.579 F7800.000
G1 X72.011 Y130.027 F7800.000
G1 X71.632 Y129.649 E2.70593 F1200.000
G1 E0.70593 F1800.00000
G92 E0
G1 X77.394 Y127.927 F7800.000
G1 E2.00000 F1800.00000
G1 X75.981 Y125.496 E2.12038 F1200.000
G1 X75.981 Y103.518 E3.06117
G1 X76.306 Y103.236 E3.07956
G1 X77.583 Y105.144 E3.17782
G1 X79.726 Y107.037 E3.30021
G1 X80.270 Y107.349 E3.32706
G1 X80.545 Y110.224 E3.45068
G1 X81.408 Y112.806 E3.56724
G1 X82.491 Y114.357 E3.64819
G1 X86.728 Y116.788 E3.85731
G1 X87.185 Y116.910 E3.87754
G1 X89.781 Y116.760 E3.98886
G1 X92.478 Y115.877 E4.11036
G1 X93.808 Y115.114 E4.17598
G1 X94.287 Y115.389 E4.19959
G1 X96.984 Y116.272 E4.32109
G1 X99.254 Y116.403 E4.41841
G1 X99.254 Y117.040 E4.44568
G1 X80.302 Y127.911 E5.38093
G1 X77.484 Y127.927 E5.50152
G1 X77.044 Y128.540 F7800.000
G1 X75.371 Y125.660 E5.64408 F960.000
G1 X75.371 Y103.239 E6.60385
G1 X76.553 Y102.214 E6.67082
G1 X76.692 Y102.715 E6.69304
G1 X78.046 Y104.739 E6.79731
G1 X80.083 Y106.538 E6.91365
G1 X80.895 Y107.004 E6.95369
G1 X80.874 Y107.248 E6.96417
G1 X81.146 Y110.096 E7.08666
G1 X81.959 Y112.529 E7.19648
G1 X82.913 Y113.896 E7.26780
G1 X86.963 Y116.219 E7.46766
G1 X87.248 Y116.295 E7.48028
G1 X89.666 Y116.155 E7.58399
G1 X92.229 Y115.316 E7.69941
G1 X93.808 Y114.411 E7.77734
G1 X94.536 Y114.828 E7.81325
G1 X97.099 Y115.667 E7.92868
G1 X99.517 Y115.807 E8.03239
G1 X99.864 Y115.714 E8.04776
G1 X99.864 Y117.394 E8.11968
G1 X80.466 Y128.520 E9.07695
G1 X77.134 Y128.539 E9.21957
G1 X77.146 Y127.948 F7800.000
G1 X77.527 Y127.132 F7800.000
G1 X77.901 Y127.507 E9.24298 F1200.000
G1 X78.927 Y127.501 E9.28824
G1 X76.399 Y124.974 E9.44601
G1 X76.399 Y123.943 E9.49152
G1 X79.952 Y127.495 E9.71330
G1 X80.732 Y127.245 E9.74949
G1 X76.399 Y122.912 E10.01999
G1 X76.399 Y121.881 E10.06550
G1 X81.387 Y126.869 E10.37690
G1 X82.042 Y126.493 E10.41024
G1 X76.399 Y120.850 E10.76255
G1 X76.399 Y119.819 E10.80806
G1 X82.698 Y126.118 E11.20127
G1 X83.353 Y125.742 E11.23461
G1 X76.399 Y118.788 E11.66872
G1 X76.399 Y117.758 E11.71423
G1 X84.008 Y125.366 E12.18924
G1 X84.663 Y124.990 E12.22258
G1 X76.399 Y116.727 E12.73850
G1 X76.399 Y115.696 E12.78401
G1 X85.318 Y124.614 E13.34083
G1 X85.973 Y124.239 E13.37417
G1 X76.399 Y114.665 E13.97189
G1 X76.399 Y113.634 E14.01740
G1 X86.629 Y123.863 E14.65602
G1 X87.284 Y123.487 E14.68936
G1 X76.399 Y112.603 E15.36889
G1 X76.399 Y111.572 E15.41440
G1 X87.939 Y123.111 E16.13483
G1 X88.594 Y122.736 E16.16817
G1 X76.399 Y110.541 E16.92950
G1 X76.399 Y109.510 E16.97501
G1 X89.249 Y122.360 E17.77724
G1 X89.904 Y121.984 E17.81058
G1 X83.376 Y115.456 E18.21814
G1 X85.794 Y116.843 F7800.000
G1 X90.559 Y121.608 E18.51567 F1200.000
G1 X91.215 Y121.232 E18.54901
G1 X87.296 Y117.314 E18.79365
G1 X88.271 Y117.258 E18.83674
G1 X91.870 Y120.857 E19.06144
G1 X92.525 Y120.481 E19.09478
G1 X89.245 Y117.201 E19.29953
G1 X90.122 Y117.047 E19.33882
G1 X93.180 Y120.105 E19.52975
G1 X93.835 Y119.729 E19.56309
G1 X90.899 Y116.793 E19.74643
G1 X91.675 Y116.538 E19.78250
G1 X94.490 Y119.353 E19.95825
G1 X95.146 Y118.978 E19.99159
G1 X92.452 Y116.284 E20.15975
G1 X93.124 Y115.925 E20.19339
G1 X95.801 Y118.602 E20.36049
G1 X96.456 Y118.226 E20.39383
G1 X94.032 Y115.802 E20.54517
G1 X95.564 Y116.304 F7800.000
G1 X97.111 Y117.850 E20.64173 F1200.000
G1 X96.991 Y116.700 E20.69280
G1 X97.766 Y117.475 E20.74118
G1 X98.086 Y116.763 E20.77561
G1 X98.407 Y117.084 E20.79566
G1 E18.79566 F1800.00000
G92 E0
G1 X81.001 Y113.081 F7800.000
G1 E2.00000 F1800.00000
G1 X76.399 Y108.479 E2.28729 F1200.000
G1 X76.399 Y107.448 E2.33280
G1 X80.483 Y111.532 E2.58777
G1 X80.100 Y110.118 E2.65247
G1 X76.399 Y106.417 E2.88350
G1 X76.399 Y105.386 E2.92901
G1 X79.991 Y108.978 E3.15323
G1 E1.15323 F1800.00000
G92 E0
G1 X76.348 Y96.800 F7800.000
G1 E2.00000 F1800.00000
G1 X75.981 Y96.482 E2.02074 F1200.000
G1 X75.981 Y74.504 E2.96153
G1 X77.394 Y72.073 E3.08191
G1 X80.302 Y72.089 E3.20636
G1 X99.254 Y82.960 E4.14161
G1 X99.254 Y83.597 E4.16888
G1 X96.984 Y83.728 E4.26620
G1 X94.287 Y84.611 E4.38770
G1 X93.808 Y84.886 E4.41131
G1 X92.478 Y84.123 E4.47693
G1 X89.781 Y83.240 E4.59843
G1 X87.185 Y83.090 E4.70975
G1 X86.728 Y83.212 E4.72998
G1 X82.491 Y85.643 E4.93910
G1 X81.408 Y87.194 E5.02005
G1 X80.545 Y89.776 E5.13661
G1 X80.268 Y92.672 E5.26112
G1 X78.575 Y93.871 E5.34993
G1 X76.763 Y95.911 E5.46673
G1 X76.386 Y96.718 E5.50487
G1 X76.559 Y97.790 F7800.000
G1 X75.371 Y96.761 E5.57215 F960.000
G1 X75.371 Y74.340 E6.53191
G1 X77.044 Y71.460 E6.67447
G1 X80.466 Y71.480 E6.82094
G1 X99.864 Y82.606 E7.77821
G1 X99.864 Y84.286 E7.85013
G1 X99.517 Y84.193 E7.86551
G1 X97.099 Y84.333 E7.96922
G1 X94.536 Y85.172 E8.08464
G1 X93.808 Y85.589 E8.12056
G1 X92.229 Y84.684 E8.19848
G1 X89.666 Y83.845 E8.31391
G1 X87.248 Y83.705 E8.41762
G1 X86.963 Y83.781 E8.43023
G1 X82.913 Y86.104 E8.63009
G1 X81.959 Y87.471 E8.70142
G1 X81.146 Y89.904 E8.81123
G1 X80.874 Y92.752 E8.93372
G1 X80.893 Y92.977 E8.94338
G1 X78.985 Y94.329 E9.04347
G1 X77.278 Y96.250 E9.15347
G1 X76.597 Y97.709 E9.22240
G1 X76.311 Y97.244 F7800.000
G1 X76.734 Y95.407 F7800.000
G1 X76.399 Y95.073 E9.24316 F1200.000
G1 X76.399 Y94.047 E9.28826
G1 X77.216 Y94.864 E9.33902
G1 X77.699 Y94.321 E9.37096
G1 X76.399 Y93.021 E9.45172
G1 X76.399 Y91.995 E9.49682
G1 X78.182 Y93.777 E9.60758
G1 X78.743 Y93.312 E9.63961
G1 X76.399 Y90.969 E9.78525
G1 X76.399 Y89.942 E9.83035
G1 X79.344 Y92.887 E10.01332
G1 X79.887 Y92.404 E10.04526
G1 X76.399 Y88.916 E10.26202
G1 X76.399 Y87.890 E10.30712
G1 X79.977 Y91.468 E10.52945
G1 X80.067 Y90.531 E10.57079
G1 X76.399 Y86.864 E10.79869
G1 X76.399 Y85.838 E10.84379
G1 X80.194 Y89.632 E11.07963
G1 X80.452 Y88.863 E11.11526
G1 X76.399 Y84.811 E11.36708
G1 X76.399 Y83.785 E11.41217
G1 X80.709 Y88.094 E11.67997
G1 X80.966 Y87.325 E11.71560
G1 X76.399 Y82.759 E11.99938
G1 X76.399 Y81.733 E12.04447
G1 X81.336 Y86.669 E12.35127
G1 X81.758 Y86.065 E12.38366
G1 X76.399 Y80.706 E12.71667
G1 X76.399 Y79.680 E12.76177
G1 X82.180 Y85.461 E13.12099
G1 X82.795 Y85.050 E13.15350
G1 X76.399 Y78.654 E13.55095
G1 X76.399 Y77.628 E13.59605
G1 X83.447 Y84.675 E14.03403
G1 X84.099 Y84.301 E14.06706
G1 X76.399 Y76.602 E14.54557
G1 X76.399 Y75.575 E14.59067
G1 X84.751 Y83.927 E15.10970
G1 X85.404 Y83.553 E15.14274
G1 X76.399 Y74.549 E15.70231
G1 X76.761 Y73.885 E15.73555
G1 X86.056 Y83.179 E16.31316
G1 X86.719 Y82.817 E16.34639
G1 X77.138 Y73.236 E16.94181
G1 X77.516 Y72.587 E16.97479
G1 X87.616 Y82.687 E17.60249
G1 X88.705 Y82.750 E17.65043
G1 X78.453 Y72.498 E18.28758
G1 X79.485 Y72.504 E18.33293
G1 X89.794 Y82.813 E18.97362
G1 X91.223 Y83.215 E19.03882
G1 X81.207 Y73.199 E19.66126
G1 X83.613 Y74.580 F7800.000
G1 X92.748 Y83.715 E20.22895 F1200.000
G1 X94.276 Y84.216 F7800.000
G1 X86.020 Y75.960 E20.74203 F1200.000
G1 X88.427 Y77.340 F7800.000
G1 X95.049 Y83.963 E21.15360 F1200.000
G1 X95.822 Y83.710 E21.18935
G1 X90.833 Y78.721 E21.49941
G1 X93.240 Y80.101 F7800.000
G1 X96.595 Y83.457 E21.70796 F1200.000
G1 X98.407 Y83.216 F7800.000
G1 X98.053 Y82.862 E21.72996 F1200.000
G1 X97.455 Y83.291 E21.76227
G1 X95.646 Y81.481 E21.87471
G1 E19.87471 F1800.00000
G92 E0
G1 X78.561 Y66.944 F7800.000
G1 E2.00000 F1800.00000
G1 X77.761 Y66.630 E2.03675 F1200.000
G1 X77.508 Y65.810 E2.07351
G1 X77.992 Y65.100 E2.11026
G1 X78.848 Y65.036 E2.14701
G1 X79.432 Y65.665 E2.18376
G1 X79.304 Y66.514 E2.22052
G1 X78.639 Y66.899 E2.25342
G1 X78.611 Y67.619 F7800.000
G1 X77.265 Y67.091 E2.31534 F1200.000
G1 X76.838 Y65.709 E2.37727
G1 X77.653 Y64.513 E2.43919
G1 X79.096 Y64.405 E2.50111
G1 X80.080 Y65.466 E2.56303
G1 X79.864 Y66.896 E2.62496
G1 X78.689 Y67.574 E2.68303
G1 X78.351 Y67.079 F7800.000
G1 X78.978 Y66.012 F7800.000
G1 X78.441 Y65.475 E2.71553 F1200.000
G1 E0.71553 F1800.00000
G92 E0
G1 X74.340 Y65.916 F7800.000
G1 E2.00000 F1800.00000
G1 X73.597 Y66.346 E2.03675 F1200.000
G1 X72.797 Y66.032 E2.07351
G1 X72.544 Y65.212 E2.11026
G1 X73.028 Y64.502 E2.14701
G1 X73.884 Y64.438 E2.18376
G1 X74.468 Y65.067 E2.22052
G1 X74.354 Y65.827 E2.25342
G1 X74.900 Y66.298 F7800.000
G1 X73.647 Y67.021 E2.31534 F1200.000
G1 X72.301 Y66.493 E2.37726
G1 X71.874 Y65.111 E2.43919
G1 X72.689 Y63.915 E2.50111
G1 X74.132 Y63.807 E2.56304
G1 X75.116 Y64.868 E2.62496
G1 X74.913 Y66.209 E2.68303
G1 X74.315 Y66.165 F7800.000
G1 X74.014 Y65.414 F7800.000
G1 X73.477 Y64.877 E2.71553 F1200.000
G1 E0.71553 F1800.00000
G92 E0
G1 X71.920 Y69.036 F7800.000
G1 E2.00000 F1800.00000
G1 X72.504 Y69.665 E2.03675 F1200.000
G1 X72.376 Y70.514 E2.07351
G1 X71.632 Y70.944 E2.11026
G1 X70.833 Y70.630 E2.14701
G1 X70.580 Y69.810 E2.18376
G1 X71.064 Y69.100 E2.22052
G1 X71.830 Y69.043 E2.25342
G1 X72.168 Y68.405 F7800.000
G1 X73.151 Y69.466 E2.31534 F1200.000
G1 X72.936 Y70.896 E2.37726
G1 X71.683 Y71.619 E2.43919
G1 X70.336 Y71.091 E2.50111
G1 X69.910 Y69.709 E2.56303
G1 X70.725 Y68.513 E2.62496
G1 X72.078 Y68.412 E2.68303
G1 X72.168 Y69.005 F7800.000
G1 X71.513 Y69.475 F7800.000
G1 X72.050 Y70.012 E2.71553 F1200.000
G1 E0.71553 F1800.00000
G92 E0
G1 X67.867 Y60.705 F7800.000
G1 E2.00000 F1800.00000
G1 X67.123 Y61.134 E2.03675 F1200.000
G1 X66.324 Y60.820 E2.07351
G1 X66.071 Y60.000 E2.11026
G1 X66.555 Y59.290 E2.14701
G1 X67.411 Y59.226 E2.18376
G1 X67.995 Y59.856 E2.22052
G1 X67.880 Y60.616 E2.25342
G1 X68.427 Y61.086 F7800.000
G1 X67.174 Y61.810 E2.31534 F1200.000
G1 X65.827 Y61.281 E2.37726
G1 X65.401 Y59.899 E2.43919
G1 X66.216 Y58.704 E2.50111
G1 X67.659 Y58.595 E2.56303
G1 X68.643 Y59.656 E2.62496
G1 X68.440 Y60.997 E2.68303
G1 X67.842 Y60.953 F7800.000
G1 X67.541 Y60.202 F7800.000
G1 X67.004 Y59.665 E2.71554 F1200.000
G1 E0.71554 F1800.00000
G92 E0
G1 X71.520 Y57.820 F7800.000
G1 E2.00000 F1800.00000
G1 X71.267 Y57.000 E2.03675 F1200.000
G1 X71.751 Y56.290 E2.07351
G1 X72.607 Y56.226 E2.11026
G1 X73.191 Y56.856 E2.14701
G1 X73.063 Y57.705 E2.18376
G1 X72.320 Y58.134 E2.22052
G1 X71.604 Y57.853 E2.25342
G1 X71.024 Y58.281 F7800.000
G1 X70.597 Y56.899 E2.31534 F1200.000
G1 X71.412 Y55.704 E2.37726
G1 X72.855 Y55.595 E2.43919
G1 X73.839 Y56.656 E2.50111
G1 X73.623 Y58.086 E2.56303
G1 X72.370 Y58.810 E2.62496
G1 X71.107 Y58.314 E2.68303
G1 X71.284 Y57.741 F7800.000
G1 X72.737 Y57.202 F7800.000
G1 X72.200 Y56.665 E2.71553 F1200.000
G1 E0.71553 F1800.00000
G92 E0
G1 X104.955 Y87.107 F7800.000
G1 E2.00000 F1800.00000
G1 X105.371 Y87.047 E2.01797 F1200.000
G1 X105.772 Y86.699 E2.04072
G1 X123.732 Y97.000 E2.92696
G1 X125.453 Y100.000 E3.07502
G1 X123.732 Y103.000 E3.22308
G1 X105.772 Y113.301 E4.10932
G1 X105.371 Y112.953 E4.13207
G1 X104.955 Y112.893 E4.15004
G1 X105.357 Y112.318 E4.18008
G1 X106.220 Y109.735 E4.29664
G1 X106.390 Y107.957 E4.37311
G1 X106.595 Y107.862 E4.38278
G1 X109.041 Y106.129 E4.51111
G1 X110.854 Y104.089 E4.62791
G1 X111.384 Y102.954 E4.68155
G1 X111.384 Y96.873 E4.94183
G1 X110.034 Y94.856 E5.04576
G1 X107.891 Y92.963 E5.16814
G1 X106.396 Y92.106 E5.24189
G1 X106.220 Y90.265 E5.32107
G1 X105.357 Y87.682 E5.43763
G1 X105.007 Y87.180 E5.46381
G1 X103.887 Y86.643 F7800.000
G1 X105.106 Y86.468 E5.51653 F960.000
G1 X105.700 Y85.954 E5.55016
G1 X124.179 Y96.552 E6.46204
G1 X126.156 Y100.000 E6.63217
G1 X124.179 Y103.448 E6.80230
G1 X105.700 Y114.046 E7.71417
G1 X105.106 Y113.532 E7.74780
G1 X103.887 Y113.357 E7.80052
G1 X104.806 Y112.041 E7.86921
G1 X105.619 Y109.608 E7.97902
G1 X105.816 Y107.551 E8.06748
G1 X106.287 Y107.332 E8.08974
G1 X108.631 Y105.671 E8.21270
G1 X110.338 Y103.750 E8.32269
